X:3085
T:Vals efter Anton Persson, Hjälmsa (i G)
M:3/4
L:1/8
Q:150  
K:G
O:Blekinge
R:Vals
Dc BA GF | DB, G,B, DG | FE DF AF | DG BG D2 | Dc BA GF | DB, G,B, DG | FE DF AF |1 G6 :|2 G4 B2 | 
|: A2 FA c2 | B2 GB d2 | ^c2 ed cB | AB AF D2 | A2 FA c2 | B2 GB d2 | cB cA FA | G6 :| 
(:musicend:)
(:music:)
